svg/iD-sprite/presets/restriction-no-right-turn.svg

<?xml version="1.0" encoding="UTF-8"?>
<!DOCTYPE svg PUBLIC "-//W3C//DTD SVG 1.1//EN" "http://www.w3.org/Graphics/SVG/1.1/DTD/svg11.dtd">
<svg version="1.1" xmlns="http://www.w3.org/2000/svg" xmlns:xlink="http://www.w3.org/1999/xlink" x="0" y="0" width="60" height="60" viewBox="0 0 60 60">
  <path d="M39,17 L39,23 L29,23 L27.344,23.812 L32.531,29 L39,29 L39,35 L49,26 z M23.25,26.75 L23,27 L21,30 L21,36.312 C22.434,38.355 24.536,39.899 27,40.594 L27,31 L27.25,30.75 z" fill="#989898"/>
  <path d="M30,15 C21.71,15 15,21.71 15,30 C15,38.29 21.71,45 30,45 C37.973,45 44.482,38.787 44.969,30.938 L41.156,34.375 C40.803,35.268 40.356,36.101 39.813,36.875 L39.469,37.344 L23.063,20.938 L22.625,20.5 L23.125,20.156 C25.072,18.791 27.439,18 30,18 C33.08,18 35.874,19.183 38,21.094 L38,17.344 C35.681,15.874 32.952,15 30,15 z M20.531,22.625 L20.938,23.031 L36.938,39.031 L37.375,39.469 L36.875,39.812 C34.928,41.178 32.561,42 30,42 C23.379,42 18,36.621 18,30 C18,27.439 18.822,25.041 20.188,23.094 z" fill="#E06D5F"/>
</svg>

<?xml version="1.0" encoding="utf-8"?>
<!-- Generator: Adobe Illustrator 23.0.4, SVG Export Plug-In . SVG Version: 6.00 Build 0)  -->
<svg version="1.1" id="Layer_1" xmlns="http://www.w3.org/2000/svg" xmlns:xlink="http://www.w3.org/1999/xlink" x="0px" y="0px"
	 viewBox="0 0 60 60" style="enable-background:new 0 0 60 60;" xml:space="preserve">
<style type="text/css">
	.st0{fill:#FFFFFF;}
</style>
<path class="st0" d="M39,17v6H29l-1.7,0.8l5.2,5.2H39v6l10-9L39,17z M23.2,26.8L23,27l-2,3v6.3c1.4,2,3.5,3.6,6,4.3V31l0.2-0.2
	L23.2,26.8z"/>
<path class="st0" d="M30,15c-8.3,0-15,6.7-15,15s6.7,15,15,15c8,0,14.5-6.2,15-14.1l-3.8,3.4c-0.4,0.9-0.8,1.7-1.3,2.5l-0.3,0.5
	L23.1,20.9l-0.4-0.4l0.5-0.3c1.9-1.4,4.3-2.2,6.9-2.2c3.1,0,5.9,1.2,8,3.1v-3.8C35.7,15.9,33,15,30,15z M20.5,22.6l0.4,0.4l16,16
	l0.4,0.4l-0.5,0.3C34.9,41.2,32.6,42,30,42c-6.6,0-12-5.4-12-12c0-2.6,0.8-5,2.2-6.9L20.5,22.6z"/>
</svg>
